src/assets/img/icons/uiux.svg

<?xml version="1.0" encoding="UTF-8"?>
<svg width="88px" height="60px" viewBox="0 0 88 60" version="1.1" xmlns="http://www.w3.org/2000/svg" xmlns:xlink="http://www.w3.org/1999/xlink">
    <!-- Generator: Sketch 50 (54983) - http://www.bohemiancoding.com/sketch -->
    <title>uiux</title>
    <desc>Created with Sketch.</desc>
    <defs>
        <filter x="-16.0%" y="-17.1%" width="131.9%" height="160.5%" filterUnits="objectBoundingBox" id="filter-1">
            <feOffset dx="0" dy="5" in="SourceAlpha" result="shadowOffsetOuter1"></feOffset>
            <feGaussianBlur stdDeviation="3" in="shadowOffsetOuter1" result="shadowBlurOuter1"></feGaussianBlur>
            <feColorMatrix values="0 0 0 0 0   0 0 0 0 0   0 0 0 0 0  0 0 0 0.246376812 0" type="matrix" in="shadowBlurOuter1" result="shadowMatrixOuter1"></feColorMatrix>
            <feMerge>
                <feMergeNode in="shadowMatrixOuter1"></feMergeNode>
                <feMergeNode in="SourceGraphic"></feMergeNode>
            </feMerge>
        </filter>
        <path d="M24.7660941,9.31925665 C26.1207684,9.31925665 27.2189488,10.3946016 27.2189488,11.7211068 C27.2189488,13.047612 26.1207684,14.1229569 24.7660941,14.1229569 C23.4114199,14.1229569 22.3132395,13.047612 22.3132395,11.7211068 C22.3132395,10.3946016 23.4114199,9.31925665 24.7660941,9.31925665 Z M24.7660941,15.7241903 C26.1207684,15.7241903 27.2189488,16.7995353 27.2189488,18.1260405 L27.2189488,25.3315908 C27.2189488,26.658096 26.1207684,27.733441 24.7660941,27.733441 C23.4114199,27.733441 22.3132395,26.658096 22.3132395,25.3315908 L22.3132395,18.1260405 C22.3132395,16.7995353 23.4114199,15.7241903 24.7660941,15.7241903 Z M12.6199868,21.3285073 C12.6199868,22.9076782 12.4690727,23.7303574 14.052889,23.7303574 C15.6367052,23.7303574 15.4706415,22.9076782 15.4706415,21.3285073 C15.4706415,20.2757267 15.4706415,17.0732599 15.4706415,11.7211068 C15.4706415,10.3946016 16.5688219,9.31925665 17.9234961,9.31925665 C19.2781704,9.31925665 20.3763508,10.3946016 20.3763508,11.7211068 C20.3763508,15.4155201 20.3763508,18.6179869 20.3763508,21.3285073 C20.3763508,25.3942878 18.0084745,27.733441 14.052889,27.733441 C10.0973034,27.733441 7.71427751,25.2961561 7.71427751,21.3285073 C7.71427751,18.6834081 7.71427751,15.4809413 7.71427751,11.7211068 C7.71427751,10.3946016 8.81245795,9.31925665 10.1671322,9.31925665 C11.5218064,9.31925665 12.6199868,10.3946016 12.6199868,11.7211068 C12.6199868,17.0732599 12.6199868,20.2757267 12.6199868,21.3285073 Z" id="path-2"></path>
        <filter x="-15.4%" y="-16.3%" width="130.8%" height="132.6%" filterUnits="objectBoundingBox" id="filter-3">
            <feOffset dx="0" dy="0" in="SourceAlpha" result="shadowOffsetOuter1"></feOffset>
            <feGaussianBlur stdDeviation="1" in="shadowOffsetOuter1" result="shadowBlurOuter1"></feGaussianBlur>
            <feColorMatrix values="0 0 0 0 0   0 0 0 0 0   0 0 0 0 0  0 0 0 0.5 0" type="matrix" in="shadowBlurOuter1"></feColorMatrix>
        </filter>
        <path d="M44.559734,21.3285977 C44.559734,22.9078196 44.4088481,23.7305253 45.9927155,23.7305253 C47.5765828,23.7305253 47.4105469,22.9078196 47.4105469,21.3285977 C47.4105469,20.2757831 47.4105469,17.073213 47.4105469,11.7208872 C47.4105469,10.3943392 48.5087628,9.31895959 49.8634807,9.31895959 C51.2181986,9.31895959 52.3164145,10.3943392 52.3164145,11.7208872 C52.3164145,15.4154197 52.3164145,18.6179899 52.3164145,21.3285977 C52.3164145,25.3945094 49.9484287,27.733738 45.9927155,27.733738 C42.0370023,27.733738 39.6538664,25.2963745 39.6538664,21.3285977 C39.6538664,18.6834132 39.6538664,15.480843 39.6538664,11.7208872 C39.6538664,10.3943392 40.7520822,9.31895959 42.1068002,9.31895959 C43.4615181,9.31895959 44.559734,10.3943392 44.559734,11.7208872 C44.559734,17.073213 44.559734,20.2757831 44.559734,21.3285977 Z M53.7418209,13.3221723 L53.7418209,11.7208872 C53.7418209,10.3943392 54.8400368,9.31895959 56.1947548,9.31895959 C57.5494727,9.31895959 58.6476886,10.3943392 58.6476886,11.7208872 L58.6476886,14.1228148 C58.6476886,15.7020367 58.4968027,16.5247425 60.0806701,16.5247425 C61.6645374,16.5247425 61.4985015,15.7020367 61.4985015,14.1228148 L61.4985015,11.7208872 C61.4985015,10.3943392 62.5967173,9.31895959 63.9514353,9.31895959 C65.3061532,9.31895959 66.4043691,10.3943392 66.4043691,11.7208872 L66.4043691,13.3221723 C66.4043691,15.4031254 65.5149343,17.031784 64.1161789,18.1260275 C65.5149343,19.2202711 66.4043691,20.8489297 66.4043691,22.9298828 L66.4043691,25.3318104 C66.4043691,26.6583584 65.3061532,27.733738 63.9514353,27.733738 C62.5967173,27.733738 61.4985015,26.6583584 61.4985015,25.3318104 L61.4985015,22.1292402 C61.4985015,20.5500184 61.6645374,19.7273126 60.0806701,19.7273126 C58.4968027,19.7273126 58.6476886,20.5500184 58.6476886,22.1292402 L58.6476886,25.3318104 C58.6476886,26.6583584 57.5494727,27.733738 56.1947548,27.733738 C54.8400368,27.733738 53.7418209,26.6583584 53.7418209,25.3318104 L53.7418209,22.9298828 C53.7418209,20.8770904 54.6547445,19.2339399 56.0837557,18.1260275 C54.6547445,17.0181151 53.7418209,15.3749646 53.7418209,13.3221723 Z" id="path-4"></path>
        <filter x="-11.2%" y="-16.3%" width="122.4%" height="132.6%" filterUnits="objectBoundingBox" id="filter-5">
            <feOffset dx="0" dy="0" in="SourceAlpha" result="shadowOffsetOuter1"></feOffset>
            <feGaussianBlur stdDeviation="1" in="shadowOffsetOuter1" result="shadowBlurOuter1"></feGaussianBlur>
            <feColorMatrix values="0 0 0 0 0   0 0 0 0 0   0 0 0 0 0  0 0 0 0.5 0" type="matrix" in="shadowBlurOuter1"></feColorMatrix>
        </filter>
    </defs>
    <g id="Page-1" stroke="none" stroke-width="1" fill="none" fill-rule="evenodd">
        <g id="Artboard-Copy" transform="translate(-15.000000, -10.000000)">
            <g id="Group-5" transform="translate(24.000000, 20.000000)"></g>
            <g id="Group-4" filter="url(#filter-1)" transform="translate(23.000000, 20.000000)">
                <path d="M0.286249621,18.5268821 C0.286249621,8.30865732 8.57764239,0.0263488093 18.8066921,0.0263488093 C29.0357418,0.0263488093 37.3271346,8.30652408 37.3271346,18.5258155 C37.3271346,28.7440403 29.0357418,37.0263488 18.8066921,37.0263488 C8.57764239,37.0263488 0.286249621,28.7429737 0.286249621,18.5247489" id="Path" fill="#7281B8" fill-rule="nonzero"></path>
                <path d="M32.2453647,18.5268821 C32.2453647,8.30865732 40.9831829,0.0263488093 51.7653651,0.0263488093 C62.546482,0.0263488093 71.2853656,8.30652408 71.2853656,18.5258155 C71.2853656,28.7440403 62.546482,37.0263488 51.7653651,37.0263488 C40.9842482,37.0263488 32.2453647,28.7429737 32.2453647,18.5247489" id="Path" fill="#4FC276" fill-rule="nonzero" style="mix-blend-mode: multiply;"></path>
                <g id="Combined-Shape">
                    <use fill="black" fill-opacity="1" filter="url(#filter-3)" xlink:href="#path-2"></use>
                    <use fill="#FFFFFF" fill-rule="evenodd" xlink:href="#path-2"></use>
                </g>
                <g id="Combined-Shape">
                    <use fill="black" fill-opacity="1" filter="url(#filter-5)" xlink:href="#path-4"></use>
                    <use fill="#FFFFFF" fill-rule="evenodd" xlink:href="#path-4"></use>
                </g>
            </g>
        </g>
    </g>
</svg>

<svg height="60" width="88" xmlns="http://www.w3.org/2000/svg" xmlns:xlink="http://www.w3.org/1999/xlink">
  <title>UI/UX Design</title>
  <defs>
    <path id="b" d="M24.766 9.32c1.355 0 2.453 1.075 2.453 2.401s-1.098 2.402-2.453 2.402c-1.355 0-2.453-1.075-2.453-2.402s1.098-2.402 2.453-2.402zm0 6.404c1.355 0 2.453 1.076 2.453 2.402v7.206c0 1.326-1.098 2.401-2.453 2.401-1.355 0-2.453-1.075-2.453-2.401v-7.206c0-1.326 1.098-2.402 2.453-2.402zM12.62 21.33c0 1.579-.15 2.401 1.433 2.401 1.584 0 1.418-.822 1.418-2.401V11.72c0-1.326 1.098-2.402 2.452-2.402 1.355 0 2.453 1.076 2.453 2.402v9.608c0 4.065-2.368 6.404-6.323 6.404-3.956 0-6.339-2.437-6.339-6.404V11.72c0-1.326 1.098-2.402 2.453-2.402 1.355 0 2.453 1.076 2.453 2.402z"/>
    <filter id="a" height="132.6%" width="130.8%" x="-15.4%" y="-16.3%">
      <feOffset in="SourceAlpha" result="shadowOffsetOuter1"/>
      <feGaussianBlur in="shadowOffsetOuter1" result="shadowBlurOuter1" stdDeviation="1"/>
      <feColorMatrix in="shadowBlurOuter1" values="0 0 0 0 0 0 0 0 0 0 0 0 0 0 0 0 0 0 0.5 0"/>
    </filter>
    <path id="d" d="M44.56 21.329c0 1.579-.151 2.402 1.433 2.402s1.418-.823 1.418-2.402V11.72c0-1.327 1.098-2.402 2.452-2.402s2.453 1.075 2.453 2.402v9.608c0 4.066-2.368 6.405-6.323 6.405s-6.34-2.438-6.34-6.405V11.72c0-1.327 1.1-2.402 2.454-2.402 1.355 0 2.453 1.075 2.453 2.402zm9.182-8.007v-1.601c0-1.327 1.098-2.402 2.453-2.402 1.354 0 2.453 1.075 2.453 2.402v2.402c0 1.579-.151 2.402 1.433 2.402s1.418-.823 1.418-2.402V11.72c0-1.327 1.098-2.402 2.452-2.402 1.355 0 2.453 1.075 2.453 2.402v1.601c0 2.081-.89 3.71-2.288 4.804 1.399 1.094 2.288 2.723 2.288 4.804v2.402c0 1.326-1.098 2.402-2.453 2.402-1.354 0-2.452-1.076-2.452-2.402v-3.203c0-1.579.166-2.402-1.418-2.402-1.584 0-1.433.823-1.433 2.402v3.203c0 1.326-1.099 2.402-2.453 2.402-1.355 0-2.453-1.076-2.453-2.402V22.93c0-2.053.913-3.696 2.342-4.804-1.43-1.108-2.342-2.751-2.342-4.804z"/>
    <filter id="c" height="132.6%" width="122.4%" x="-11.2%" y="-16.3%">
      <feOffset in="SourceAlpha" result="shadowOffsetOuter1"/>
      <feGaussianBlur in="shadowOffsetOuter1" result="shadowBlurOuter1" stdDeviation="1"/>
      <feColorMatrix in="shadowBlurOuter1" values="0 0 0 0 0 0 0 0 0 0 0 0 0 0 0 0 0 0 0.5 0"/>
    </filter>
  </defs>
  <g fill="none" fill-rule="evenodd" transform="translate(8 10)">
    <path d="M.286 18.527c0-10.218 8.292-18.5 18.52-18.5 10.23 0 18.521 8.28 18.521 18.499 0 10.218-8.291 18.5-18.52 18.5-10.23 0-18.52-8.283-18.52-18.501" fill="#7281b8" fill-rule="nonzero"/>
    <path d="M32.245 18.527c0-10.218 8.738-18.5 19.52-18.5 10.781 0 19.52 8.28 19.52 18.499 0 10.218-8.739 18.5-19.52 18.5s-19.52-8.283-19.52-18.501" fill="#4fc276" fill-rule="nonzero"/>
    <use fill="#000" filter="url(#a)" xlink:href="#b"/>
    <use fill="#fff" xlink:href="#b"/>
    <use fill="#000" filter="url(#c)" xlink:href="#d"/>
    <use fill="#fff" xlink:href="#d"/>
  </g>
</svg>
